X:4590
T:Never Was Piping So Gay
O:england
R:reel
C:Ed Reavy
S:The Collected Compositions of Ed Reavy
M:2/2
L:1/8
N:Never Was Piping So Gay. The concluding line
N:of O'Driscoll's refrain in Yeats' poem, the
N:Host of the air. O'Driscoll dreamed that
N:his wife Bridget was taken by the Host
N:as he was playing harmlessly at cards with
N:"the merry old men." When O'Driscoll
N:awoke from his dream,all that remained of the
N:dream was the strange unearthly sound of a pipe
N:piping away in the distant air-
N:"And never was piping so sad, And
N:never was piping so gay."
K:G
DB,|:G, B,D GBdB|caf dcA FA|G2 BG DGBG|AF (3FFF dFcF|
G2 BFDGB,D|Aafd ^cdef|gfgd cBcA |1FGAc BFDB,:|2FGAc BG G2||
fgd ^cdBF|FGBd cAFA|GB (3cBA BcdB|cafd ^cdef|
gfgd ^cdBF|FGBdcAFA|BG (3GGG AF (3FFF|BdcA G4 ||
gd ^cdBG|FGBd cAFA|GB (3cBA BcdB|cafd ^cdef|gbaf gd^cd|
BGFG cAFA|BG (3FFF AF (3FFF|BdcA G2||


